X:1
T:Title
%%score 1 2 3
L:1/8
Q:1/4=120
M:4/4
K:G
V:1 treble nm="Grand Piano"
V:2 treble nm="Grand Piano, Melody"
V:3 bass nm="Grand Piano"
V:1
 z4 B4 | B4 d4 | e6 e2 | c4 B2 c2 | d6 d2 | g6 g2 | e4 e4 | d2 B2 B2 d2 | e6 f2 | g4 g4 | g6 d2 | %11
 G2 A2 B2 c2 | d6 d2 | g4 g4 | d2 B2 G2 B2 | d4 d4 | B8 | z4 z2 d2 | d4 d4 | d4 z2 e2 | c4 c4 | %21
 c4 z2 Bc | d4 d4 | d6 g2 | f4 f4 | f6 g2 | g4 g2 d2 | e4 e4 | d2 B2 c2 e2 | d6 d2 | g4 g4 | %31
 d2 B2 G2 B2 | d4 d4 | B6 d2 | d4 d4 | d4 z2 e2 | c4 c4 | c4 z2 Bc | d4 d4 | d6 g2 | f4 f4 | %41
 f6 g2 | g4 g2 d2 | e4 e4 | d2 B2 c2 e2 | d6 d2 | g4 g4 | d2 B2 G2 B2 | d4 d4 | B8 | z4 z2 Bc | %51
 d2 d2 d2 dc | BGBd cBAG | A2 A2 cBAG | d2 d2 d2 dc | B2 A2 G2 AB | AGAB c2 cB | c2 e2 dcBA | %58
 G2 d2 d2 GA | B2 B2 BAGA | B2 B2 B3 G | c2 c2 cBAB | c2 c2 c3 B | d2 d2 GABc | d2 ce d3 B | %65
 c2 e2 dcBA | G2 B2 B2 GA | B2 B2 BAGA | B2 B2 B3 G | c2 c2 cBAB | c2 c2 c3 B | d2 d2 GABc | %72
 d2 ce d3 B | c2 e2 dcBA | G2 B2 B4- | B8 |] %76
V:2
 z4 G4 | D2 B,2 A,2 G,2 | A,6 E2 | E3 D E2 F2 | G6 D2 | E3 F G2 A2 | B2 G2 E2 G2 | D3 E D2 C2 | %8
 B,6 B,C | D4 D4 | D6 B,2 | G2 D2[K:bass] B,2 G,2 | A,6 D2 | E3[K:treble] F G2 A2 | %14
 G2 E2[K:bass] D2 C2 | B,4 A,4 | G,8 | z4 z2 B,2 | B,4 B,4 | B,4 z2[K:treble] E2 | E4 E4 | %21
 E4 z2 D2 | G4 G4 | G4 F2 G2 | A4 A4 | A6 B2 | G4 B2 G2 | E4 G2 E2 | D2[K:bass] B,2 A,2 G,2 | %29
 A,6 D2 | E3 F G2 A2 | G2 E2 D2 C2 | B,4 A,4 | G,6 B,2 | B,4 B,4 | B,4 z2[K:treble] E2 | E4 E4 | %37
 E4 z2 D2 | G4 G4 | G4 F2 G2 | A4 A4 | A6 B2 | G4 B2 G2 | E4 G2 E2 | D2[K:bass] B,2 A,2 G,2 | %45
 A,6 D2 | E3 F G2 A2 | G2 E2[K:bass] D2 C2 | B,4 A,4 | G,8 | z4 z2 G,A, | B,2[K:treble] D2 G2 FE | %52
 D[K:bass]B,G,B, A,2 C[K:treble]D | E2 E2 EGFA | G2 G2 G2 G,A, | B,2 D2 G2 FE | %56
 D[K:bass]B,G,B, A,2 C[K:treble]D | E2 G2 FEDC | B,2 G,2 G,2 B,C | D2 D2 DCB,C | D2 D2 D3 B, | %61
 E2 E2 EDCD | E2 E2 E3 D | G2 G2 DEDB, | G2 FA G3 B, | E2 G2 FEDC | B,2 G,2 G,2 B,C | D2 D2 DCB,C | %68
 D2 D2 D3 B, | E2 E2 EDCD | E2 E2 E3 D | G2 G2 DEDB, | G2 FA G3 B, | E2 G2 FED[K:bass]C | %74
 B,2 G,2 G,4- | G,8 |] %76
V:3
 z4 G,4 | G,4 D,4 | D,6 G,2 | G,4 B,2 D2 | G,6 G,2 | G,4 G,4 | G,2 B,2 B,2 G,2 | A,4 D,4 | %8
 E,6 D,2 | G,4 G,4 | G,6 B,2 | C2 B,2 A,2 G,2 | D,6 F,2 | G,3 F, E,2 D,2 | G,2 A,2 B,2 C2 | %15
 D4 D,4 | G,8 | z4 z2 G,2 | G,4 G,4 | G,4 z2 G,2 | A,4 A,4 | A,4 z2 B,2 | G,4 G,4 | G,4 A,2 G,2 | %24
 D,4 D,4 | D,6 G,2 | G,4 G,4 | A,4 A,4 | G,4 D,4 | D,6 D,2 | G,3 F, E,2 D,2 | G,2 A,2 B,2 C2 | %32
 D4 D,4 | G,6 G,2 | G,4 G,4 | G,4 z2 G,2 | A,4 A,4 | A,4 z2 B,2 | G,4 G,4 | G,4 A,2 G,2 | D,4 D,4 | %41
 D,6 G,2 | G,4 G,4 | A,4 A,4 | G,4 D,4 | D,6 D,2 | G,3 F, E,2 D,2 | G,2 A,2 B,2 C2 | D4 D,4 | G,8 | %50
 z4 z2 G,2 | G,2 B,2 G,2 E,2 | D,2 D,2 D,2 G,2 | A,2 A,2 A,2 D,2 | G,2 G,2 G,2 D,2 | %55
 G,2 A,2 B,2 G,2 | A,2 A,2 D,2 D,2 | G,2 G,2 C,2 D,2 | G,2 G,2 G,2 B,2 | G,2 G,2 G,2 D,2 | %60
 G,2 G,2 G,3 B, | A,2 A,2 A,2 CB, | A,2 A,2 A,3 B, | G,2 G,2 G,2 D,2 | G,2 G,2 G,3 D, | %65
 G,2 G,2 C,2 D,2 | G,2 G,2 G,2 B,2 | G,2 G,2 G,2 D,2 | G,2 G,2 G,3 B, | A,2 A,2 A,2 CB, | %70
 A,2 A,2 A,3 B, | G,2 G,2 G,2 D,2 | G,2 G,2 G,3 D, | G,2 G,2 C,2 D,2 | G,2 G,2 G,4- | G,8 |] %76

